X:1
T:Nevado del Ruiz, 99.99 D
T:Nevado del Ruiz, 99.99 D
T:Thomas L. Rhodes, 1923
T:Public Domain Courtesy of the Cyber Hymnal™
C:Thomas L. Rhodes, 1923
Z:Public Domain
Z:Courtesy of the Cyber Hymnal™
%%score ( 1 2 ) ( 3 4 )
L:1/8
Q:1/4=110
M:9/8
K:F
V:1 treble 
V:2 treble 
V:3 bass 
V:4 bass 
V:1
 [Fc][F=B][Fc] | [FA]3 F3 [Fc][D=B][Cc] | [CE]6 [EB][EA][EB] | [EG]3 [EB]3 [Ed][Fc][EB] | %4
 [FA]6 [Fc][F=B][Fc] | [FA]3 F3 [FA][FB][Ec] | [DB]6 [FB][Fc][Fd] | [Fc]3 [FA]3 [EG]F[EG] | %8
 F6 [FA][GB][Ac] | [Bd]3 [Bd]3 [Bd][ce][df] | [Ac]6 [FA][GB][Ac] | [GB]3 [EG]3 edc | %12
 A6 [Fc][F=B][Fc] | [FA]3 F3 [FA][FB][_Ec] | [DB]6 [FB][Fc][Fd] | [Fc]3 [FA]3 [EG]F[EG] | F6 |] %17
V:2
 x3 | x3 F3 x3 | x9 | x9 | x9 | x3 F3 x3 | x9 | x7 F x | F6 x3 | x9 | x9 | x9 | (FFF F3) x3 | %13
 x3 F3 x3 | x9 | x7 F x | F6 |] %17
V:3
 [F,A,][F,^G,][F,A,] | [F,C]3 [F,A,]3 [F,A,][F,^G,][F,A,] | [G,B,]6 [C,G,][C,^F,][C,G,] | %3
 [C,C]3 [G,C]3 [B,C][A,C][G,C] | [F,C]6 [F,A,][F,^G,][F,A,] | [F,C]3 [F,A,]3 [F,C][F,G,][F,A,] | %6
 [B,,B,]6 [D,B,][C,A,][B,,B,] | [C,A,]3 [C,C]3 [C,B,][C,A,][C,B,] | [F,A,]6 z3 | %9
 ([B,F][B,F][B,F]) [B,F]3 [B,F]3 | ([F,F][A,F][CF] [A,F]3) z3 | ([C,C][E,C][G,C]) C2 C CB,A, | %12
 C6 [F,A,][F,^G,][F,A,] | [F,C]3 [F,A,]3 [F,C][F,G,][F,A,] | [B,,B,]6 [D,B,][C,A,][B,,B,] | %15
 [C,A,]3 [C,C]3 [C,B,][C,A,][C,A,] | [F,,F,A,]6 |] %17
V:4
 x3 | x9 | x9 | x9 | x9 | x9 | x9 | x9 | x9 | x9 | x9 | x3 (C2 C) x3 | ([F,,F,]A,,C, F,3) x3 | x9 | %14
 x9 | x9 | x6 |] %17

